source/img/footer/vk.svg

<svg width="28" height="17" viewBox="0 0 28 17" fill="none" xmlns="http://www.w3.org/2000/svg">
<path d="M0.5 2.33876C0.5 1.48373 1.0151 1.02268 2.04531 0.955621L6.01515 0.980769C6.28158 0.980769 6.45921 1.10651 6.54802 1.35799C6.95655 2.61538 7.41392 3.70094 7.92014 4.61465C8.42637 5.52835 9.08801 6.58038 9.90507 7.77071C9.97611 7.9216 10.0916 7.99704 10.2514 7.99704C10.3758 7.99704 10.4735 7.93836 10.5445 7.82101L10.6244 7.54438L10.6511 3.19379C10.6511 2.89201 10.5756 2.69083 10.4246 2.59024C10.2736 2.48965 9.99388 2.4142 9.58535 2.36391C9.26563 2.31361 9.10577 2.12919 9.10577 1.81065C9.10577 1.74359 9.11465 1.69329 9.13241 1.65976C9.50542 0.57002 10.5711 0.0251479 12.3296 0.0251479L13.8216 0C14.4966 0 15.0561 0.15927 15.5001 0.477811C15.9442 0.796351 16.1662 1.29931 16.1662 1.98669V7.69527C16.2906 7.77909 16.406 7.82101 16.5126 7.82101C16.779 7.82101 17.0099 7.67012 17.2053 7.36834C19.1592 4.78649 20.216 3.05966 20.3759 2.18787C20.3759 2.1711 20.3936 2.12919 20.4291 2.06213C20.5535 1.81065 20.7577 1.5927 21.0419 1.40828C21.3261 1.22387 21.5748 1.09813 21.788 1.03107C21.859 0.997535 21.9389 0.980769 22.0277 0.980769H26.1574L26.4239 1.00592C26.7791 1.00592 27.0544 1.16519 27.2498 1.48373C27.3209 1.58432 27.3697 1.69329 27.3964 1.81065C27.423 1.92801 27.4408 2.04536 27.4496 2.16272C27.4585 2.28008 27.463 2.34714 27.463 2.36391V2.53994C27.3386 3.22732 27.0233 3.9608 26.5171 4.74038C26.0109 5.51997 25.367 6.36243 24.5855 7.26775C23.804 8.17308 23.3155 8.76825 23.1201 9.05326C22.9603 9.25444 22.8803 9.43886 22.8803 9.60651C22.8803 9.74063 22.9514 9.89152 23.0935 10.0592L26.9834 14.6864C27.1965 14.9546 27.3031 15.248 27.3031 15.5666C27.3031 15.9522 27.1432 16.2707 26.8235 16.5222C26.5038 16.7737 26.1219 16.9162 25.6779 16.9497L25.2249 16.9749H21.1752C21.1574 16.9749 21.1219 16.979 21.0686 16.9874C21.0153 16.9958 20.9798 17 20.962 17C20.5712 17 20.2071 16.8407 19.8696 16.5222C19.7453 16.3881 18.9105 15.3989 17.3652 13.5547C17.2764 13.4374 17.152 13.3284 16.9922 13.2278C16.9211 13.4961 16.8279 13.8817 16.7124 14.3846C16.597 14.8876 16.5126 15.248 16.4593 15.466L16.3794 15.8935C16.2018 16.4803 15.8287 16.8323 15.2604 16.9497L14.8874 16.9749H12.2763C10.8021 16.9749 9.33224 16.3378 7.86686 15.0636C6.40148 13.7894 5.08264 12.1423 3.91034 10.122C2.73803 8.10182 1.64566 5.75049 0.633216 3.06805C0.544405 2.8501 0.5 2.607 0.5 2.33876ZM16.5126 8.85207C16.1396 8.85207 15.8021 8.75567 15.5001 8.56287C15.1982 8.37007 15.0472 8.10602 15.0472 7.77071V1.98669C15.0472 1.65138 14.9584 1.41248 14.7808 1.26997C14.6032 1.12747 14.2923 1.05621 13.8483 1.05621L12.3296 1.10651C11.5658 1.10651 10.9886 1.23225 10.5978 1.48373C11.3793 1.8358 11.7701 2.40582 11.7701 3.19379V7.61982C11.7346 8.03895 11.5569 8.38683 11.2372 8.66346C10.9175 8.94009 10.5623 9.0784 10.1715 9.0784C9.63863 9.0784 9.2301 8.83531 8.94591 8.34911C7.56046 6.37081 6.53025 4.4931 5.85529 2.71598L5.6155 2.06213L2.07195 2.03698C1.84104 2.03698 1.71227 2.04956 1.68562 2.0747C1.65898 2.09985 1.64566 2.1711 1.64566 2.28846C1.64566 2.43935 1.66342 2.59862 1.69895 2.76627L2.25845 4.17456C3.75048 7.81262 5.37127 10.6795 7.12085 12.7751C8.87042 14.8708 10.5889 15.9186 12.2763 15.9186H14.9406C15.0472 15.9186 15.1271 15.8893 15.1804 15.8306C15.2337 15.7719 15.2781 15.6588 15.3136 15.4911L15.3669 15.2396L15.8732 13.0266C16.0152 12.7249 16.1396 12.5237 16.2462 12.4231C16.4415 12.2387 16.6725 12.1465 16.9389 12.1465C17.3652 12.1465 17.8003 12.3895 18.2444 12.8757L20.5091 15.5917C20.6512 15.8097 20.8022 15.9186 20.962 15.9186H25.3581C25.891 15.9186 26.1574 15.7929 26.1574 15.5414C26.1574 15.4576 26.1308 15.3738 26.0775 15.2899L22.2142 10.7382C21.9123 10.3861 21.7613 10.0089 21.7613 9.60651C21.7613 9.20414 21.9034 8.81854 22.1876 8.4497C22.4185 8.1144 22.867 7.55695 23.5331 6.77737C24.1992 5.99778 24.7809 5.26849 25.2782 4.5895C25.7756 3.9105 26.1042 3.29438 26.264 2.74112L26.3439 2.4142C26.3262 2.38067 26.3173 2.32618 26.3173 2.25074C26.3173 2.1753 26.3084 2.11243 26.2907 2.06213H22.1077C21.8412 2.16272 21.6281 2.31361 21.4682 2.51479L21.3084 2.9926C20.8643 4.14941 19.7009 5.93491 17.8181 8.34911C17.4451 8.68442 17.0099 8.85207 16.5126 8.85207Z" fill="#666666"/>
</svg>

<svg xmlns="http://www.w3.org/2000/svg" width="28" height="17" fill="none"><path fill="#666" d="M.5 2.34c0-.86.52-1.32 1.55-1.38l3.97.02c.26 0 .44.13.53.38.4 1.26.86 2.34 1.37 3.25.5.92 1.17 1.97 1.99 3.16.07.15.18.23.34.23.13 0 .22-.06.3-.18l.07-.28.03-4.35c0-.3-.07-.5-.23-.6-.15-.1-.43-.18-.83-.23-.32-.05-.48-.23-.48-.55 0-.07 0-.12.02-.15C9.51.57 10.57.03 12.33.03l1.5-.03c.67 0 1.23.16 1.67.48.44.32.67.82.67 1.5V7.7c.12.08.24.12.34.12.27 0 .5-.15.7-.45 1.95-2.58 3-4.31 3.17-5.18 0-.02.01-.06.05-.13.12-.25.33-.47.61-.65.29-.19.53-.31.75-.38a.55.55 0 0 1 .24-.05h4.13l.26.03c.36 0 .63.16.83.47.07.1.12.21.15.33a2.4 2.4 0 0 1 .06.55v.18a6.11 6.11 0 0 1-.94 2.2c-.5.78-1.15 1.62-1.93 2.53-.79.9-1.27 1.5-1.47 1.78-.16.2-.24.39-.24.56 0 .13.07.28.21.45l3.9 4.63c.2.26.31.56.31.88 0 .38-.16.7-.48.95-.32.25-.7.4-1.14.43l-.46.02h-4.04c-.02 0-.06 0-.11.02a.86.86 0 0 1-.1.01c-.4 0-.76-.16-1.1-.48-.12-.13-.96-1.12-2.5-2.97a1.39 1.39 0 0 0-.38-.32 38.47 38.47 0 0 0-.53 2.24l-.08.42a1.4 1.4 0 0 1-1.12 1.06l-.37.02h-2.61c-1.48 0-2.95-.63-4.41-1.9a19.3 19.3 0 0 1-3.96-4.95A47.51 47.51 0 0 1 .63 3.07a1.92 1.92 0 0 1-.13-.73Zm16.01 6.51c-.37 0-.7-.1-1.01-.29a.9.9 0 0 1-.45-.79V2c0-.34-.1-.58-.27-.72-.18-.14-.49-.21-.93-.21l-1.52.05c-.76 0-1.34.12-1.73.37.78.36 1.17.93 1.17 1.71v4.43a1.5 1.5 0 0 1-.53 1.04c-.32.28-.68.42-1.07.42-.53 0-.94-.24-1.22-.73a26.16 26.16 0 0 1-3.1-5.63l-.23-.66-3.55-.02c-.23 0-.36.01-.38.03-.03.03-.04.1-.04.22 0 .15.01.3.05.48l.56 1.4c1.49 3.64 3.11 6.51 4.86 8.6 1.75 2.1 3.47 3.15 5.16 3.15h2.66c.1 0 .19-.03.24-.09.05-.06.1-.17.13-.34l.06-.25.5-2.21c.15-.3.27-.5.38-.6.2-.2.42-.28.69-.28.43 0 .86.24 1.3.73l2.27 2.71c.14.22.3.33.45.33h4.4c.53 0 .8-.13.8-.38a.47.47 0 0 0-.08-.25l-3.87-4.55c-.3-.35-.45-.73-.45-1.13 0-.4.14-.8.43-1.16.23-.34.68-.9 1.34-1.67.67-.78 1.25-1.51 1.75-2.19.5-.68.82-1.3.98-1.85l.08-.33a.37.37 0 0 1-.02-.16c0-.07-.01-.14-.03-.19h-4.18c-.27.1-.48.25-.64.45L21.3 3c-.45 1.16-1.6 2.94-3.5 5.36-.36.33-.8.5-1.3.5Z"/></svg>
